X:9
T:Handy Bell. Le4.009
B:L.Leadley MS#4 c1850
Z:Village Music Project, 2016 Steve Mansfield
M:6/8
L:1/8
Q:3/8=110
K:Am
G | c2c c2d | efe e2d | cdc c2d | e2A A2G |
c2c c2d | e2e e2d | c2A BA^G | A3 A2 :|
|: G | c2A AGF | c2A AGF | GAG G2E | GAG G2E |
A2B c2d | eag fed | c2A BA^G | A3 A2 :|

